X:726
T:Archers Hornpipe. BF13.034
M:2/2
L:1/8
Q:180
S:J.Lishman()MS,c1825,Lakes,Browne Coll.
R:Hornpipe
O:England
A:Lakes
N:
Z:vmp.Cherri Graebe.
K:C major
G2|cBce gece|BGBc dBGB|AGcB AGF"E added"E|F2D2D2GB|!
 cBce gece|BGBc dBGB|AcGc FAGF|"NB"E2C2C2:|!
|:EF|GAGE cecA|fedc BGAB|ceGc FAGE|F2D2D2 EF|!
GAGE cdec|BGBc defd| e/f/g ec GBdB|c2c2c2:|]
W:Bar 8 given as (F2CC) in ms. CGP. |]
